version: 1.0.0
desc: Phase Invert (plonk.studio)
tags: utility processing stereo
author: LFSaw
about:
    # Phase Invert
    inverts the phase of the second (right) channel.

// Copyright plonk GmbH (2023) Released under LGPL 3,  https://opensource.org/license/lgpl-3-0/
// See also Licenses/LGPL3.txt in the hosting repository.


in_pin:left input
in_pin:right input
out_pin:left output
out_pin:right output

@init

@slider

@block

@sample
spl0 = spl0;
spl1 = -spl1;

